!!!OTL: Allerlei Jagen (230), S. 496
!!!id: T0415
**kern
*clefG2
*k[f#]
*G:
{16g
=1
16g
8g
8g
8g
8g
8g
8b
=2
8dd
8b
4g}
=3
{8a
8d
=4
4d}
=5
{8a
8a
8a
8b
=6
8cc
8b
4a}
=7
{8g
8b
=8
4dd
4dd
8ee
8ee
=9
8dd
8b
8g}
=10
{8b
8cc
8a
=11
4b}
=12
{16b
8b
16cc
8a
8b}
=13
{8g
8b
4dd
8b
8f#
=14
4a
4g}
=15
{8g
8b
=16
4dd
4dd
8ee
8ee
=17
8dd
8b
8g}
=18
{8b
8cc
8a
=19
4b}
=20
{16b
16b
8cc
8a
8b}
=21
{8g
8b
4dd
8b
8f#
=22
4a
8g}
4.r
==
*-
!!!minrhy: 16
!!!meters: 3/4 ]  ZZ[11
!!!cut: Allerlei Jagen (230), S. 496
!!!reg: Luxemburg
!!!trd: Singendes Volk, Esch-Alzette, 1937 posth.
!!!rhy1:   X_X_X_X_X_X_  X_X_X__   (x2)
!!!rhy2: X_X_  X__
!!!key: T0415  16  G 3/4 ]  ZZ[11
!!!mod: HEPTATONIK IONISCH]  AMBITUS[9
!!!kad: 1-5213311331
!!!akz: 15_-5_4_55_3__2_55_3__2_
!!!fot: 'a__b__c__d__e__f__g__d__e__f__g__
!!!for: 'a__b__aw_bw_bv_c__bv_bw_bv_cv_bv_
!!!fok: '^__\__^__^__-__-__^__^__-__-__^__
!! PHRAS[VORWIEGEND AUFTAKTIG]
!!!fkt: J&auml;gerlied
!!!bem: StraPen, fff Witry, 13.12.1932
!! THILL; Mathias
!! PR[41] 2K[0] 2G[1] 3K[5] 3G[9] 4A[1] 4Ü[0] 5A[4] 6K[0] 6G[0]
!! 7K[0] 7G[0] 8A[0] MEHR[0] SI[22] ABS[74] SR[1] SP[20]
!! ST[16] 2k[4] 2g[24] 3k[5] 3g[4] 4d[0] 4ü[0] 5d[0] 6k[0] 6g[0]
!! 7k[0] 7g[0] 8d[0] mehr[0] si[38] dm[-16] sr[28] sp[9]
!! 1F[77] 2F[17] 3F[0] 4F[0] LF[0] 2P[5] 3P[0] 4P[0] TRI[0] DF[3] AB[75]
!! TF[0] U3K[0] U3[0] U4[0] U4Ü[0] U5[3] U6K[0] U6[0] U7K[0] U7[1]
!! N1[19] N2K[0] N2[21] N3K[0] N3[25] N4[11] N4Ü[0] N5[16] N6K[0] N6[4]
!!!n7k: 0] N7[0] O1[0] O2K[0] O2[0] O3K[0] O3[0] HÖ[0
!!!RNB: symbol: &auml;      = a umlaut  (UTF-8: Å„)
